src/main/resources/icons/DatabaseIcons/icons/databaseLink.svg

<svg xmlns="http://www.w3.org/2000/svg" width="16" height="16" viewBox="0 0 16 16">
  <g fill="none" fill-opacity=".7" fill-rule="evenodd">
    <path fill="#231F20" d="M4.001,5 L2.9897,5 C2.4437,5 2.0007,5.443 2.0007,5.99 L2.0007,10 L2.0007,12.01 C2.0007,12.557 2.4437,13 2.9907,13 L12,13 L12,12.0023 L14.986,12.0023 L14.986,14.9973 L12,14.9973 L12,14 L2.9907,14 C1.8907,14 1.0007,13.109 1.0007,12.01 L1.0007,10 L1.0007,5.99 C1.0007,4.891 1.8907,4 2.9897,4 L4.001,4 L4.001,2.0013 L5.0005,2.0013 L7.0005,2.0004 L7.0005,3.0004 L5.001,3.0004 L5.001,6 L7.0005,6 L7.0005,7 L5.001,7 L4.001,7.0003 L4.001,5 Z"/>
    <polygon fill="#40B6E0" points="8 8 15 8 15 1 8 1"/>
  </g>
</svg>

<svg xmlns="http://www.w3.org/2000/svg" width="16" height="16" viewBox="0 0 16 16"><rect id="frame" width="16" height="16" fill="none"/><g fill="none" fill-opacity=".7" fill-rule="evenodd"><path fill="#231F20" d="M4.001 5H2.99a.99.99 0 0 0-.99.99v6.02c0 .547.444.99.99.99H12v-.998h2.986v2.995H12V14H2.99A1.99 1.99 0 0 1 1 12.01V5.99C1 4.891 1.89 4 2.99 4H4V2.001h3v1H5V6h2v1H4V5z"/><path fill="#40B6E0" d="M8 8h7V1H8z"/></g></svg>
